src/assets/images/homepage/partner-4.svg

<svg width="166" height="38" viewBox="0 0 166 38" fill="none" xmlns="http://www.w3.org/2000/svg">
<g id="Vector">
<path d="M57.3704 25.6563H67.3544V22.9376H60.668V10.0596H57.3704V25.6563Z" fill="#3C2979"/>
<path d="M74.1191 25.8848C77.668 25.8848 79.8765 23.4555 79.8765 19.8533C79.8765 16.2282 77.668 13.8065 74.1191 13.8065C70.5703 13.8065 68.3618 16.2282 68.3618 19.8533C68.3618 23.4555 70.5703 25.8848 74.1191 25.8848ZM74.1344 23.3716C72.497 23.3716 71.6593 21.8713 71.6593 19.8304C71.6593 17.7894 72.497 16.2816 74.1344 16.2816C75.7413 16.2816 76.5789 17.7894 76.5789 19.8304C76.5789 21.8713 75.7413 23.3716 74.1344 23.3716Z" fill="#3C2979"/>
<path d="M86.6126 30.2866C89.9558 30.2866 92.3318 28.7634 92.3318 25.7706V13.9589H89.1105V15.9236H88.9887C88.5545 14.9716 87.6027 13.8065 85.6454 13.8065C83.079 13.8065 80.9086 15.8018 80.9086 19.7848C80.9086 23.6762 83.0181 25.4888 85.653 25.4888C87.5188 25.4888 88.5622 24.5521 88.9887 23.5849H89.1258V25.7248C89.1258 27.3318 88.0976 27.9562 86.6887 27.9562C85.257 27.9562 84.5335 27.3318 84.267 26.6235L81.2665 27.0272C81.6548 28.87 83.4597 30.2866 86.6126 30.2866ZM86.6811 23.0518C85.0895 23.0518 84.2213 21.7876 84.2213 19.7695C84.2213 17.7818 85.0743 16.3882 86.6811 16.3882C88.2576 16.3882 89.1409 17.7209 89.1409 19.7695C89.1409 21.8333 88.2423 23.0518 86.6811 23.0518Z" fill="#3C2979"/>
<path d="M99.5554 25.8848C103.104 25.8848 105.313 23.4555 105.313 19.8533C105.313 16.2282 103.104 13.8065 99.5554 13.8065C96.0066 13.8065 93.798 16.2282 93.798 19.8533C93.798 23.4555 96.0066 25.8848 99.5554 25.8848ZM99.5706 23.3716C97.9333 23.3716 97.0955 21.8713 97.0955 19.8304C97.0955 17.7894 97.9333 16.2816 99.5706 16.2816C101.177 16.2816 102.015 17.7894 102.015 19.8304C102.015 21.8713 101.177 23.3716 99.5706 23.3716Z" fill="#3C2979"/>
<path d="M106.779 25.6563H110.023V13.9589H106.779V25.6563ZM108.409 12.4509C109.376 12.4509 110.168 11.7123 110.168 10.806C110.168 9.9074 109.376 9.16865 108.409 9.16865C107.449 9.16865 106.657 9.9074 106.657 10.806C106.657 11.7123 107.449 12.4509 108.409 12.4509Z" fill="#3C2979"/>
<path d="M111.979 30.0429H115.223V23.7829H115.322C115.771 24.7577 116.753 25.8467 118.642 25.8467C121.308 25.8467 123.387 23.7373 123.387 19.8227C123.387 15.8018 121.216 13.8065 118.65 13.8065C116.692 13.8065 115.756 14.9716 115.322 15.9236H115.177V13.9589H111.979V30.0429ZM115.154 19.8076C115.154 17.7209 116.037 16.3882 117.614 16.3882C119.221 16.3882 120.074 17.7818 120.074 19.8076C120.074 21.8485 119.206 23.265 117.614 23.265C116.053 23.265 115.154 21.8943 115.154 19.8076Z" fill="#3C2979"/>
<path d="M134.639 17.2944C134.349 15.1393 132.613 13.8065 129.658 13.8065C126.665 13.8065 124.693 15.1925 124.7 17.4467C124.693 19.1984 125.797 20.3331 128.082 20.79L130.108 21.1936C131.128 21.3992 131.593 21.7724 131.608 22.3587C131.593 23.0518 130.839 23.5468 129.704 23.5468C128.546 23.5468 127.777 23.0518 127.58 22.0999L124.389 22.2674C124.693 24.5063 126.597 25.8848 129.696 25.8848C132.727 25.8848 134.897 24.3388 134.905 22.0313C134.897 20.3407 133.793 19.3278 131.525 18.8632L129.407 18.4367C128.318 18.2007 127.914 17.8275 127.922 17.2639C127.914 16.5634 128.707 16.1064 129.711 16.1064C130.839 16.1064 131.509 16.7233 131.668 17.4772L134.639 17.2944Z" fill="#3C2979"/>
<path d="M143.806 20.6758C143.814 22.2446 142.74 23.067 141.575 23.067C140.349 23.067 139.557 22.2065 139.549 20.828V13.9589H136.305V21.4069C136.312 24.1408 137.912 25.8087 140.265 25.8087C142.024 25.8087 143.288 24.9024 143.814 23.5315H143.935V25.6563H147.05V13.9589H143.806V20.6758Z" fill="#3C2979"/>
<path d="M149.002 25.6563H152.246V18.6348C152.246 17.3401 153.069 16.4796 154.15 16.4796C155.216 16.4796 155.932 17.2107 155.932 18.3607V25.6563H159.078V18.5129C159.078 17.302 159.771 16.4796 160.951 16.4796C161.987 16.4796 162.763 17.1269 162.763 18.4292V25.6563H166V17.7894C166 15.2534 164.492 13.8065 162.314 13.8065C160.6 13.8065 159.268 14.6823 158.788 16.0226H158.666C158.293 14.667 157.097 13.8065 155.49 13.8065C153.914 13.8065 152.718 14.6442 152.231 16.0226H152.094V13.9589H149.002V25.6563Z" fill="#3C2979"/>
<path d="M16.9916 0.0651855H27.1024L23.0439 11.4068C15.9007 12.662 10.4373 19.5731 10.4373 27.9105C10.4373 31.6716 11.5492 35.1426 13.4254 37.9348H0L12.2734 3.63597C13.0451 1.47934 14.9137 0.0651855 16.9916 0.0651855Z" fill="#341492"/>
<path d="M27.1024 0.0651855L24.2498 8.03605L23.3904 0.0651855H27.1024Z" fill="black" fill-opacity="0.3"/>
<path d="M33.5012 0.0651855H23.3904L27.4318 11.3589C34.7171 12.4752 40.3294 19.4602 40.3294 27.9105C40.3294 31.6716 39.2175 35.1426 37.3413 37.9348H50.4927L38.2194 3.63598C37.4477 1.47934 35.5791 0.0651855 33.5012 0.0651855Z" fill="#4C28B5"/>
<path d="M15.1884 36.8433C13.4606 34.3827 12.4303 31.2811 12.4303 27.9104C12.4303 19.9135 18.2297 13.4309 25.3835 13.4309C32.5375 13.4309 38.3369 19.9135 38.3369 27.9104C38.3369 31.2811 37.3066 34.3827 35.5788 36.8433C32.7423 34.7317 29.2112 33.4795 25.3835 33.4795C21.556 33.4795 18.0248 34.7317 15.1884 36.8433Z" fill="#4C28B5"/>
</g>
</svg>

<svg xmlns="http://www.w3.org/2000/svg" width="166" height="38" fill="none"><path fill="#3C2979" d="M57.37 25.656h9.984v-2.718h-6.686V10.06H57.37zM74.12 25.885c3.548 0 5.756-2.43 5.756-6.032 0-3.625-2.208-6.047-5.757-6.047s-5.757 2.422-5.757 6.047c0 3.602 2.208 6.032 5.757 6.032m.014-2.513c-1.637 0-2.475-1.5-2.475-3.542 0-2.04.838-3.548 2.475-3.548 1.607 0 2.445 1.507 2.445 3.548s-.838 3.542-2.445 3.542M86.613 30.287c3.343 0 5.719-1.524 5.719-4.516V13.959H89.11v1.965h-.122c-.434-.952-1.386-2.117-3.344-2.117-2.566 0-4.736 1.995-4.736 5.978 0 3.891 2.11 5.704 4.744 5.704 1.866 0 2.91-.937 3.336-1.904h.137v2.14c0 1.607-1.028 2.231-2.437 2.231-1.432 0-2.155-.624-2.422-1.332l-3 .403c.388 1.843 2.193 3.26 5.346 3.26m.068-7.235c-1.591 0-2.46-1.264-2.46-3.282 0-1.988.853-3.382 2.46-3.382 1.577 0 2.46 1.333 2.46 3.381 0 2.064-.899 3.283-2.46 3.283M99.555 25.885c3.549 0 5.758-2.43 5.758-6.032 0-3.625-2.209-6.047-5.758-6.047s-5.757 2.422-5.757 6.047c0 3.602 2.209 6.032 5.757 6.032m.016-2.513c-1.638 0-2.475-1.5-2.475-3.542 0-2.04.837-3.548 2.475-3.548 1.606 0 2.444 1.507 2.444 3.548s-.838 3.542-2.444 3.542M106.779 25.656h3.244V13.96h-3.244zm1.63-13.205c.967 0 1.759-.739 1.759-1.645 0-.899-.792-1.637-1.759-1.637-.96 0-1.752.738-1.752 1.637 0 .906.792 1.645 1.752 1.645M111.979 30.043h3.244v-6.26h.099c.449.975 1.431 2.064 3.32 2.064 2.666 0 4.745-2.11 4.745-6.024 0-4.021-2.171-6.017-4.737-6.017-1.958 0-2.894 1.166-3.328 2.118h-.145v-1.965h-3.198zm3.175-10.235c0-2.087.883-3.42 2.46-3.42 1.607 0 2.46 1.394 2.46 3.42 0 2.04-.868 3.457-2.46 3.457-1.561 0-2.46-1.37-2.46-3.457M134.639 17.294c-.29-2.155-2.026-3.488-4.981-3.488-2.993 0-4.965 1.387-4.958 3.64-.007 1.752 1.097 2.887 3.382 3.344l2.026.404c1.02.205 1.485.578 1.5 1.165-.015.693-.769 1.188-1.904 1.188-1.158 0-1.927-.495-2.124-1.447l-3.191.167c.304 2.24 2.208 3.618 5.307 3.618 3.031 0 5.201-1.546 5.209-3.854-.008-1.69-1.112-2.703-3.38-3.168l-2.118-.426c-1.089-.236-1.493-.61-1.485-1.173-.008-.7.785-1.158 1.789-1.158 1.128 0 1.798.617 1.957 1.371zM143.806 20.676c.008 1.569-1.066 2.391-2.231 2.391-1.226 0-2.018-.86-2.026-2.239v-6.87h-3.244v7.449c.007 2.734 1.607 4.402 3.96 4.402 1.759 0 3.023-.907 3.549-2.277h.121v2.124h3.115V13.96h-3.244zM149.002 25.656h3.244v-7.021c0-1.295.823-2.155 1.904-2.155 1.066 0 1.782.73 1.782 1.88v7.296h3.146v-7.143c0-1.211.693-2.033 1.873-2.033 1.036 0 1.812.647 1.812 1.95v7.226H166V17.79c0-2.536-1.508-3.983-3.686-3.983-1.714 0-3.046.876-3.526 2.217h-.122c-.373-1.356-1.569-2.216-3.176-2.216-1.576 0-2.772.837-3.259 2.216h-.137v-2.064h-3.092z"/><path fill="#341492" d="M16.992.065h10.11l-4.058 11.342C15.9 12.662 10.437 19.573 10.437 27.91c0 3.76 1.112 7.232 2.988 10.024H0L12.273 3.636c.772-2.157 2.64-3.57 4.719-3.57"/><path fill="#000" fill-opacity=".3" d="M27.102.065 24.25 8.036l-.86-7.97z"/><path fill="#4C28B5" d="M33.501.065h-10.11l4.04 11.294C34.718 12.475 40.33 19.46 40.33 27.91c0 3.76-1.111 7.232-2.988 10.024h13.152L38.219 3.636c-.771-2.157-2.64-3.57-4.718-3.57"/><path fill="#4C28B5" d="M15.188 36.843c-1.727-2.46-2.758-5.562-2.758-8.933 0-7.997 5.8-14.48 12.954-14.48s12.953 6.483 12.953 14.48c0 3.371-1.03 6.473-2.758 8.933a17 17 0 0 0-10.195-3.364 17 17 0 0 0-10.196 3.364"/></svg>
